svg/barrier-11.svg

<svg data-name="Layer 1" xmlns="http://www.w3.org/2000/svg" width="11" height="11">
    <path d="M9.5 2h-8a.5.5 0 0 0-.5.5v4a.5.5 0 0 0 .5.5H2v2.5a.5.5 0 0 0 1 0V9h5v.5a.5.5 0 0 0 1 0V7h.5a.5.5 0 0 0 .5-.5v-4a.5.5 0 0 0-.5-.5zM2 3h1.5l3 3h-2L2 3.5zm0 3V4.5L3.5 6zm1 2V7h5v1zm6-2H7.5l-3-3h2L9 5.5zm0-1.5L7.5 3H9z"/>
</svg>

<svg id="Layer_1" data-name="Layer 1" xmlns="http://www.w3.org/2000/svg" width="11" height="11" viewBox="0 0 11 11">
  <title>barrier-11</title>
  <path d="M9.5,2h-8a.5.5,0,0,0-.5.5v4a.5.5,0,0,0,.5.5H2V9.5a.5.5,0,0,0,1,0V9H8v.5a.5.5,0,0,0,1,0V7h.5a.5.5,0,0,0,.5-.5v-4A.5.5,0,0,0,9.5,2ZM2,3H3.5l3,3h-2L2,3.5ZM2,6V4.5L3.5,6ZM3,8V7H8V8ZM9,6H7.5l-3-3h2L9,5.5ZM9,4.5,7.5,3H9Z"/>
</svg>
